X: 60
T: 60. Ich freue mich in dir
N: Derived from chor060.krn
C: Johann Sebastian Bach
%%abc-version 2.0
%%abcx-abcm2ps-target-version 5.9.1 (29 Sep 2008)
%%abc-creator hum2abc beta
%%abcx-conversion-date 2019/03/11 17:28:17
%%abc-edited-by Craig Stuart Sapp
%%humdrum-veritas 4275290788
%%humdrum-veritas-data 2277445544
%%
%%barnumbers 0
L: 1/4
M: C
%%staves [1 2 3 4]
V: 1 clef=treble
V: 2 clef=treble
V: 3 clef=treble-8
V: 4 clef=bass
K: D
[V:1] F/G/ [I:setbarnb 1]| 
[V:2] D/C/ | 
[V:3] A | 
[V:4] D,/E,/ | 
[V:1] ABAG/F/ | 
[V:2] DDD/C//B,//C | 
[V:3] AGF/E/A | 
[V:4] F,G,A,A,, | 
[V:1] !fermata!F2zA | 
[V:2] !fermata!D2xF | 
[V:3] !fermata!A2xA | 
[V:4] !fermata!D,2zD, | 
[V:1] Bcdd/c/ | 
[V:2] ^G^ABF | 
[V:3] eefB | 
[V:4] D,C,B,,/C,/D,/E,/ | 
[V:1] c2!fermata!B :|]  
[V:2] F3/E/!fermata!D :|]  
[V:3] B^A!fermata!B :|]  
[V:4] F,2!fermata!B,, :|]  
[V:1] e/d/ [I:setbarnb 5]| 
[V:2] E | 
[V:3] B | 
[V:4] ^G, | 
[V:1] cd/c/B3/A/ | 
[V:2] EFF/D/E | 
[V:3] =AAA^G | 
[V:4] =A,/^G,/F,/E,/ D,/B,,/E, | 
[V:1] !fermata!A3A | 
[V:2] !fermata!E3E | 
[V:3] !fermata!c3c | 
[V:4] !fermata!A,,3A, | 
[V:1] Bcd3/e/ | 
[V:2] E/F/^GAE | 
[V:3] Bed/c/B | 
[V:4] ^G,E,F,G, | 
[V:1] !fermata!c3A | 
[V:2] !fermata!E3E | 
[V:3] !fermata!A3c | 
[V:4] !fermata!A,3=G, | 
[V:1] ABAG/F/ | 
[V:2] FG/F/EE | 
[V:3] dGA/B/c | 
[V:4] F,E,/D,/C,A,, | 
[V:1] !fermata!F2zA | 
[V:2] !fermata!D2xD | 
[V:3] !fermata!B2xA | 
[V:4] !fermata!B,,2zF, | 
[V:1] B/c/ddc | 
[V:2] DEE/F/=G | 
[V:3] G/A/BAA | 
[V:4] G,^G,A,A,, | 
[V:1] !fermata!d3 |]  
[V:2] !fermata!F3 |]  
[V:3] !fermata!A3 |]  
[V:4] !fermata!D,3 |]  



